assents/icons8-info.svg

<?xml version="1.0" encoding="UTF-8"?>
<svg xmlns="http://www.w3.org/2000/svg" xmlns:xlink="http://www.w3.org/1999/xlink" viewBox="0 0 30 30" width="30px" height="30px">
<g id="surface36463986">
<path style=" stroke:none;fill-rule:nonzero;fill:rgb(100%,100%,100%);fill-opacity:1;" d="M 15 3 C 8.371094 3 3 8.371094 3 15 C 3 21.628906 8.371094 27 15 27 C 21.628906 27 27 21.628906 27 15 C 27 8.371094 21.628906 3 15 3 Z M 16 21 L 14 21 L 14 14 L 16 14 Z M 15 11.5 C 14.171875 11.5 13.5 10.828125 13.5 10 C 13.5 9.171875 14.171875 8.5 15 8.5 C 15.828125 8.5 16.5 9.171875 16.5 10 C 16.5 10.828125 15.828125 11.5 15 11.5 Z M 15 11.5 "/>
</g>
</svg>

<?xml version="1.0"?><svg fill="#000000" xmlns="http://www.w3.org/2000/svg"  viewBox="0 0 30 30" width="30px" height="30px">    <path d="M15,3C8.373,3,3,8.373,3,15c0,6.627,5.373,12,12,12s12-5.373,12-12C27,8.373,21.627,3,15,3z M16,21h-2v-7h2V21z M15,11.5 c-0.828,0-1.5-0.672-1.5-1.5s0.672-1.5,1.5-1.5s1.5,0.672,1.5,1.5S15.828,11.5,15,11.5z"/></svg>
